.local/share/icons/Gruvbox-Plus-Dark/actions/16/run-build-file.svg

<svg xmlns="http://www.w3.org/2000/svg" width="16" height="16" viewBox="0 0 16 16">
 <defs>
  <style id="current-color-scheme" type="text/css">
   .ColorScheme-Text { color:#ebdbb2; } .ColorScheme-Highlight { color:#458588; }
  </style>
 </defs>
 <path style="fill:currentColor" class="ColorScheme-Text" d="M 7 1 L 7 2.0859375 C 6.1094 2.2386375 5.2648969 2.5905344 4.5292969 3.1152344 L 3.7578125 2.34375 L 2.34375 3.7578125 L 3.1132812 4.5273438 C 2.5902812 5.2640437 2.2405438 6.1092 2.0898438 7 L 1 7 L 1 9 L 2.0859375 9 C 2.2386375 9.8906 2.5905344 10.734703 3.1152344 11.470703 L 2.34375 12.242188 L 3.7578125 13.65625 L 4.5273438 12.886719 C 5.2640437 13.409719 6.1092 13.760156 7 13.910156 L 7 15 L 9 15 L 9 13.914062 C 9.8906 13.761062 10.734703 13.409766 11.470703 12.884766 L 12.242188 13.65625 L 13.65625 12.242188 L 12.886719 11.472656 C 13.409719 10.735656 13.760156 9.8908 13.910156 9 L 15 9 L 15 7 L 13.914062 7 C 13.761062 6.1094 13.409766 5.2648969 12.884766 4.5292969 L 13.65625 3.7578125 L 12.242188 2.34375 L 11.472656 3.1132812 C 10.735656 2.5902812 9.8908 2.2405438 9 2.0898438 L 9 1 L 7 1 z M 6 5 L 11 5 L 11 8.5 L 8.5 11 L 6 11 L 6 5 z"/>
</svg>

<svg width="16" height="16" version="1.1" xmlns="http://www.w3.org/2000/svg">
  <defs>
    <style id="current-color-scheme" type="text/css">.ColorScheme-Text { color:#ebdbb2; } .ColorScheme-Highlight { color:#458588; }</style>
  </defs>
  <path class="ColorScheme-Text" d="m7 1v1.086c-0.8906 0.1527-1.735 0.5046-2.471 1.029l-0.7715-0.7715-1.414 1.414 0.7695 0.7695c-0.523 0.7367-0.8727 1.582-1.023 2.473h-1.09v2h1.086c0.1527 0.8906 0.5046 1.735 1.029 2.471l-0.7715 0.7715 1.414 1.414 0.7695-0.7695c0.7367 0.523 1.582 0.8734 2.473 1.023v1.09h2v-1.086c0.8906-0.153 1.735-0.5043 2.471-1.029l0.7715 0.7715 1.414-1.414-0.7695-0.7695c0.523-0.737 0.8734-1.582 1.023-2.473h1.09v-2h-1.086c-0.153-0.8906-0.5043-1.735-1.029-2.471l0.7715-0.7715-1.414-1.414-0.7695 0.7695c-0.737-0.523-1.582-0.8727-2.473-1.023v-1.09zm-1.501 4h5v3.5l-2.5 2.5h-2.5z" fill="currentColor"/>
</svg>
